X:1
T:Have You Room for the King?
T:Have You Room for the King?
T:Maude Anita Hart
T:Maude Anita Hart, 1908
T:Public Domain Courtesy of the Cyber Hymnal™
T:Public Domain Courtesy of the Cyber Hymnal™
C:Maude Anita Hart
Z:Public Domain
Z:Courtesy of the Cyber Hymnal™
%%score ( 1 2 ) ( 3 4 )
L:1/8
Q:1/4=100
M:4/4
K:A
V:1 treble 
V:2 treble 
V:3 bass 
V:4 bass 
V:1
 [CE]>[CE] | [EA]2 [EA]>[EB] [Ac]2 [EA]>[CE] | [DF]2 [DA]2 [CE]2 [EG]>[EA] | %3
w: 1.~Have you|room for the King, should He|come to- day? Could you|
w: 2.~There was|ne- ver a man- sion so|bright and blest, There was|
w: 3.~Have you|room in your heart for the|King? I say; Is it|
 [EB]2 [EF]>[EF] [EA]2 [EB]2 | [Ec]6 [CE]>[CE] | [EA]2 [EA]>[EB] [Ac]2 [EA]>[CE] | %6
w: bid Him to en- ter|in? Would your|gar- ments be white, could you|
w: ne- ver a place so|fair As the|one where the King has be-|
w: o- pen to His com-|mand? He is|wait- ing to show you the|
 [DF]2 [DA]2 [CE]2 [Fd][Fd] | [Ec] [Ec]2 [EA] [Ac]2 [EB]2 | [EA]6 ||"^Refrain" [EA]>[Ac] | %10
w: to Him say, “I am|rea- dy and free from|sin”?||
w: come a guest; Th- is|glo- ry we all may|share.|Have you|
w: per- fect way, Th- e|way to the bet- ter|land.||
 [Ae]2 [Ae]>[Ae] [Ac]2 [Ac]2 | [Bd]2 [Bd]>[Ac] [GB]2 [GB]>[GB] | [Ac]2 [Ac][Ac] [GB]2 [A^d]>[Ad] | %13
w: |||
w: room for the King, yes,|room for the King, Should He|call for your spir- it to-|
w: |||
 e6 [Ge]>[Gd] | [Ac]2 [Ac]>[EB] [FA]2 [FA]2 | [Fd]2 [FA]>[=FB] [Ec]2 [CE]2 | %16
w: |||
w: day? Could you|say, “I am Thine, yes,|whol- ly am Thine, And|
w: |||
 [DF]<[DF] [FA][=Fd] [Ec]2 [EB]2 | [EA]6 |] %18
w: ||
w: walk- ing in the King’s high-|way.”|
w: ||
V:2
 x2 | x8 | x8 | x8 | x8 | x8 | x8 | x8 | x6 || x2 | x8 | x8 | x8 | (G2 AA B2) x2 | x8 | x8 | x8 | %17
 x6 |] %18
V:3
 [A,,A,]>[A,,A,] | [A,C]2 [A,C]>[A,D] [A,E]2 [A,C]>[C,A,] | [D,A,]2 [D,F,]2 [A,,A,]2 [E,B,]>[E,C] | %3
w: ~ ~|~ ~ ~ ~ ~ ~|~ ~ ~ ~ ~|
 [E,D]2 [E,D]>[E,D] [E,C]2 [E,G,]2 | [A,,A,]6 [A,,A,]>[A,,A,] | %5
w: ~ ~ ~ ~ ~|~ ~ ~|
 [A,C]2 [A,C]>[A,D] [A,E]2 [A,C]>[A,,A,] | [D,A,]2 [D,F,]2 [A,,A,]2 [D,A,][D,A,] | %7
w: ~ ~ ~ ~ ~ ~|~ ~ ~ ~ ~|
 [E,A,] [E,A,]2 [E,C] [E,E]2 [E,D]2 | [A,C]6 || [A,C]>[A,E] | [A,C]2 [A,C]>[A,C] [A,E]2 [A,E]2 | %11
w: ~ ~ ~ ~ ~|~|~ ~|~ ~ ~ ~ ~|
 [E,E]2 [E,E]>[E,E] [E,E]2 [E,E]>[E,E] | [A,E]2 [A,E][A,E] [B,E]2 [B,F]>[B,F] | %13
w: ~ ~ ~ ~ ~ ~|~ ~ ~ ~ ~ ~|
 (EB,)B,B, D2 [E,B,]>[E,E] | [A,E]2 [A,E]>[E,D] [F,C]2 [F,C]2 | %15
w: ~ * yes, to- day; * *||
 [D,A,]2 [D,A,]>[D,A,] [A,,A,]2 [A,,A,]2 | [D,A,]<[D,A,] [D,D][D,A,] [E,A,]2 [E,D]2 | [A,C]6 |] %18
w: |||
V:4
 x2 | x8 | x8 | x8 | x8 | x8 | x8 | x8 | x6 || x2 | x8 | x8 | x8 | E,6 x2 | x8 | x8 | x8 | x6 |] %18

